X: 1
T: Kelleher's
M: 12/8
L: 1/8
R: slide
K: Gmaj
D3 D3 EGG G3|ABc d2c BAG AGE|D3 D3 EGG G3|
[1ABc d2c BGG GFE:|2ABc d2c BGG GBc||
d3 d2g edB d2B|G2B AGE ABA ABc|d3 d2g edB d2B|
[1G2B AGE GAG GBc:|2G2B AGE GAG GFE||
